T: Cat's Meow, The
M: 6/8
L: 1/8
K: Dmaj
A2G|:FAd f2g|afe dBA|B3 BAF|dAF EAG|FAd f2g|afe dBA|Bde fdB|1AFE DAG:|2AFE D ge||fdB AFA|DFA dfa|gef ged|ced cBA|fdB AFA|DFA dfa|gec aed|1cec dge:|2cec dAG||FAd faa|agf agf|Ace g3|gfe gfe|f2d g2e|agf efg|faf gec|1edc dAG:|2 edc ||
